X: 89
T: Taiyang guangmang zhao yao zhai
L: 1/8
M: 2/4
K: C
d G B A [I:setbarnb 1]| 
G4 | 
G G c A/ c/ | 
d3e | 
G c B3/ A/ | 
G AG2 | 
c A/ c/ d A | 
G4 | 
G G B A | 
G4 | 
G G c A/ c/ | 
d3e | 
G c B3/ A/ | 
G AG2 | 
c A/ c/ d A | 
G4 | 
G G d A/ c/ | 
d3e | 
G G B A | 
G4 | 
G G d d | 
B3A | 
G G B A | 
G4 | 
d G B A | 
G4 | 
G G c A/ c/ | 
d3e | 
G c B3/ A/ | 
G AG2 | 
c A/ c/ d A | 
G4 | 
G G B A | 
G4 | 
G G c A/ c/ | 
d3e | 
G c B3/ A/ | 
G AG2 | 
c A/ c/ d A | 
G4 | 
G G d A/ c/ | 
d3e | 
G G B A | 
G4 | 
G G d d | 
B3A | 
G G B A | 
G z B A | 
G4- | 
G4 | 
d G B A | 
G4 | 
G G c A/ c/ | 
d4 | 
G c B A | 
G AG2 | 
c A/ c/ d A | 
G4 | 
G G d A/ c/ | 
d3e | 
G G B A | 
G4 | 
G G d d | 
B3A | 
G G B A | 
G2z2 | 
d G B A | 
G4 | 
G G c A/ c/ | 
d4 | 
G c B A | 
G AG2 | 
c A/ c/ d A | 
G4 | 
G G d A/ c/ | 
d3e | 
G G B A | 
G4 | 
G G d d | 
B3A | 
G G B A | 
G2z2 | 
G2G G | 
g2g2 | 
d4- | 
d3e | 
d G B A | 
G2g2 | 
g4- | 
g2d2 | 
g4- | 
g4- | 
g4- | 
gz3 |]

@@@ Tune index: 8757
